X:81
T:All The Night I Lay Awake
Z:Jack Campin, http://www.campin.me.uk/
S:Northumbrian Minstrelsy
M:3/4
L:1/16
K:G
e3`d B2e2 dBAG|B2g2 g2B2 d2g2|e3`d B2e2 dBAG|A2e2e2A2 c4:|
B2d2 edcB dBAG|B2d2 edcB d2g2|B2d2 edcB dBAG|A2e2e2A2 c4:| 
G3`A B2g2 dBAG|B2g2 g2B2 d2g2|G3`A B2g2 dBAG|A2e2e2A2 c4:|
B2g2 g2B2 efge|BcdB g2B2 d4  |B2g2 g2B2 efge|A2e2e2A2 c4:|

